source/images/icons/basket.svg

<svg width="16" height="15" viewBox="0 0 16 15" fill="none" xmlns="http://www.w3.org/2000/svg">
<g clip-path="url(#clip0_14601_641)">
<path d="M15.3 5.38892L11.8 5.58892L8.6 0.688916C8.5 0.488916 8.2 0.388916 8 0.388916C7.8 0.388916 7.5 0.488916 7.4 0.688916L4.2 5.58892H0.7C0.3 5.58892 0 5.88892 0 6.28892C0 6.38892 0 6.38892 0 6.48892L1.9 13.2889C2.1 13.9889 2.6 14.3889 3.3 14.3889H12.7C13.4 14.3889 13.9 13.9889 14.1 13.2889L16 6.38892C16 6.28892 16 6.28892 16 6.18892C16 5.78892 15.7 5.38892 15.3 5.38892ZM8 2.28892L10.2 5.48892H5.9L8 2.28892Z" fill="black"/>
</g>
<defs>
<clipPath id="clip0_14601_641">
<rect width="16" height="14" fill="white" transform="translate(0 0.388916)"/>
</clipPath>
</defs>
</svg>

<svg width="16" height="15" viewBox="0 0 16 15" fill="none" xmlns="http://www.w3.org/2000/svg"><g clip-path="url(#clip0_14601_641)"><path d="M15.3 5.39l-3.5.2L8.6.69c-.1-.2-.4-.3-.6-.3-.2 0-.5.1-.6.3l-3.2 4.9H.7c-.4 0-.7.3-.7.7v.2l1.9 6.8c.2.7.7 1.1 1.4 1.1h9.4c.7 0 1.2-.4 1.4-1.1l1.9-6.9v-.2c0-.4-.3-.8-.7-.8zM8 2.29l2.2 3.2H5.9L8 2.29z" fill="#000"/></g><defs><clipPath id="clip0_14601_641"><path fill="#fff" transform="translate(0 .39)" d="M0 0h16v14H0z"/></clipPath></defs></svg>
